src/assets/images/ctrla_logo.svg

<svg height="209.684" viewBox="0 0 680 209.684" width="680" xmlns="http://www.w3.org/2000/svg"><g fill="#fff"><path d="m396.467 523.445c-11.553 0-19.166-3.941-19.166-23.671v-75.588h38.049v-16.905h-38.05v-37.216h-18.586v37.216h-27.908v16.906h27.908v80.94c0 29.025 18.587 35.225 32.682 35.225 9.307 0 18.319-1.681 25.084-4.788l-.847-17.188a41.457 41.457 0 0 1 -19.166 5.069z" transform="translate(-148.98 -332.362)"/><path d="m358.134 400.475h-.565v-24.506h-18.318c.564 19.152 1.129 29.306 1.129 41.142v88.552h18.6v-72.21c0-17.753 12.683-42.272 40.86-42.272 5.07 0 8.46.565 10.719 1.412l3.658-18.318a49.925 49.925 0 0 0 -13.813-1.695c-23.104 0-36.917 13.813-42.27 27.895z" transform="translate(-43.843 -301.051)"/><path d="m395.175 0h18.605v204.613h-18.605z"/><path d="m424.521 558.341c-52.885 0-85.459-40.295-85.459-86.239s32.575-86.239 85.459-86.239a76.5 76.5 0 0 1 44.1 13.53l12.6-15.373c-17.659-12.44-37.4-16.758-56.7-16.758-61.317 0-107.234 44.249-107.234 104.84s45.913 104.839 107.234 104.839c24.411 0 47.383-8.3 63.469-20.578l-13.463-14.633c-14.741 12.522-33.382 16.611-50.006 16.611z" transform="translate(-317.287 -367.258)"/><path d="m410.022 407.857v-9.98h-25.064v-25.064h-9.979v25.064h-25.065v9.98h25.064v25.064h9.979v-25.064z" transform="translate(88.907 -298.147)"/><path d="m519.478 567.178h23.671l-84.221-199.539h-20.941l-84.222 199.539h23.671l20.457-51.243h101.128zm-114.147-69.844 43.133-108 43.133 108z" transform="translate(136.851 -362.565)"/></g></svg>

<svg xmlns="http://www.w3.org/2000/svg" width="680" height="209.684" viewBox="0 0 680 209.684">
  <g id="ctrla_logo" transform="translate(-317.287 -367.262)">
    <path id="パス_3" data-name="パス 3" d="M396.467,523.445c-11.553,0-19.166-3.941-19.166-23.671V424.186h38.049V407.281H377.3V370.065H358.714v37.216H330.806v16.906h27.908v80.94c0,29.025,18.587,35.225,32.682,35.225,9.307,0,18.319-1.681,25.084-4.788l-.847-17.188A41.457,41.457,0,0,1,396.467,523.445Z" transform="translate(168.307 34.9)" fill="#fff"/>
    <path id="パス_4" data-name="パス 4" d="M358.134,400.475h-.565V375.969H339.251c.564,19.152,1.129,29.306,1.129,41.142v88.552h18.6V433.453c0-17.753,12.683-42.272,40.86-42.272,5.07,0,8.46.565,10.719,1.412l3.658-18.318a49.925,49.925,0,0,0-13.813-1.695C377.3,372.58,363.487,386.393,358.134,400.475Z" transform="translate(273.444 66.211)" fill="#fff"/>
    <rect id="長方形_9" data-name="長方形 9" width="18.605" height="204.613" transform="translate(712.462 367.262)" fill="#fff"/>
    <path id="パス_5" data-name="パス 5" d="M424.521,558.341c-52.885,0-85.459-40.295-85.459-86.239s32.575-86.239,85.459-86.239a76.5,76.5,0,0,1,44.1,13.53l12.6-15.373c-17.659-12.44-37.4-16.758-56.7-16.758-61.317,0-107.234,44.249-107.234,104.84S363.2,576.941,424.521,576.941c24.411,0,47.383-8.3,63.469-20.578l-13.463-14.633C459.786,554.252,441.145,558.341,424.521,558.341Z" transform="translate(0 0.004)" fill="#fff"/>
    <path id="パス_6" data-name="パス 6" d="M410.022,407.857v-9.98H384.958V372.813h-9.979v25.064H349.914v9.98h25.064v25.064h9.979V407.857Z" transform="translate(406.194 69.115)" fill="#fff"/>
    <path id="パス_7" data-name="パス 7" d="M519.478,567.178h23.671L458.928,367.639H437.987L353.765,567.178h23.671l20.457-51.243H499.021ZM405.331,497.334l43.133-108,43.133,108Z" transform="translate(454.138 4.697)" fill="#fff"/>
  </g>
</svg>
